Adwaita++/actions/16/edit-select-invert.svg

<svg height="16" viewBox="0 0 16 16" width="16" xmlns="http://www.w3.org/2000/svg">
  <path d="m2 1v14h7v-2a5 5 0 0 1 -5-5 5 5 0 0 1 5-5v-2zm7 2v10c2.7614 0 5-2.2386 5-5s-2.2386-5-5-5z" fill="#474747"/>
</svg>

<svg xmlns="http://www.w3.org/2000/svg" width="16" height="16" viewBox="0 0 16 16">
 <defs>
  <style id="current-color-scheme" type="text/css">
   .ColorScheme-Text { color:#474747; } .ColorScheme-Highlight { color:#4285f4; }
  </style>
 </defs>
 <path style="fill:currentColor" class="ColorScheme-Text" d="M 2 1 L 2 15 L 9 15 L 9 13 A 5 5 0 0 1 4 8 A 5 5 0 0 1 9 3 L 9 1 L 2 1 z M 9 3 L 9 13 C 11.7614 13 14 10.7614 14 8 C 14 5.2386 11.7614 3 9 3 z"/>
</svg>
